assets/Handshake/Flat/handshake_flat.svg

<svg width="32" height="32" viewBox="0 0 32 32" fill="none" xmlns="http://www.w3.org/2000/svg">
<path d="M11.4063 6.15625C6.13126 5.50625 4.25001 8.15625 3.34376 9.37501C0.875013 13.0156 2.35939 17.0156 4.15626 18.9375C4.15626 18.9375 14.25 28.7656 14.5313 29.0312C14.8125 29.2969 15.4766 30.2031 17.0781 29.9453C18.4757 29.7203 18.875 28.0312 18.875 28.0312C18.875 28.0312 19.9073 28.8731 21.3906 28.0312C22.5469 27.375 22.5 26.0625 22.5 26.0625C22.5 26.0625 23.7383 26.6829 25.0625 25.5625C26.2553 24.5532 25.5156 22.7812 25.5156 22.7812C25.5156 22.7812 26.5856 22.9571 27.3438 22.125C28.3688 21 28.0156 19.5781 27.3438 18.9375L19.625 10.5L19.0313 7.375L11.4063 6.15625Z" fill="#FFC83D"/>
<path d="M26.7074 22.5933L24.4809 20.3364C24.287 20.1398 23.9704 20.1376 23.7739 20.3315C23.5773 20.5255 23.5751 20.8421 23.769 21.0386L25.5334 22.8272C25.5223 22.7973 25.5156 22.7812 25.5156 22.7812C25.5156 22.7812 26.0977 22.8769 26.7074 22.5933Z" fill="#D67D00"/>
<path d="M23.9779 26.1509L21.6684 23.5872C21.4835 23.382 21.1674 23.3656 20.9622 23.5504C20.757 23.7352 20.7406 24.0514 20.9254 24.2565L22.5845 26.0983C22.7836 26.1741 23.3157 26.3302 23.9779 26.1509Z" fill="#D67D00"/>
<path d="M20.5759 28.351L18.7698 26.438C18.5802 26.2372 18.2638 26.2281 18.063 26.4177C17.8622 26.6073 17.8531 26.9237 18.0427 27.1245L18.9471 28.0824C19.1457 28.2124 19.7417 28.5326 20.5759 28.351Z" fill="#D67D00"/>
<path d="M18.4033 29.0535C17.6442 29.2557 16.2359 29.3193 15.2656 28.2812L14.4899 28.9916C14.51 29.011 14.524 29.0244 14.5313 29.0312C14.5602 29.0586 14.5932 29.0927 14.6309 29.1317C14.9591 29.4711 15.6414 30.1766 17.0781 29.9453C17.6998 29.8452 18.124 29.4554 18.4033 29.0535Z" fill="#D67D00"/>
<path d="M6.375 6.8125C4.6875 8.97916 2.0875 14.5875 6.6875 18.4375L5.24045 19.9931C4.5734 19.3437 4.15626 18.9375 4.15626 18.9375C2.35939 17.0156 0.875013 13.0156 3.34376 9.375C3.35716 9.35698 3.37078 9.33864 3.38461 9.32C3.90872 8.61416 4.74999 7.48117 6.33357 6.75266L6.375 6.8125Z" fill="#F59F00"/>
<path d="M17.25 23.6875C18.4531 25.0781 16.9492 26.8496 16.25 27.5938L5.66868 16.5845C7.64313 14.5816 8.94702 14.3814 9.82813 15.25C10.7092 16.1186 10.2969 16.7344 10.2969 16.7344C10.2969 16.7344 11.4909 16.0557 12.75 17.2969C14.0091 18.5381 13.1406 19.4844 13.1406 19.4844C13.1406 19.4844 14.44 19.2504 15.3594 20.2812C16.3906 21.4375 15.7344 22.7812 15.7344 22.7812C15.7344 22.7812 16.5248 22.8493 17.25 23.6875Z" fill="#D67D00"/>
<path d="M12.4375 8C15.6719 6.70313 20.5781 6.04688 22.8281 6.01562C24.3594 6.01562 26.3091 6.38659 28.375 8.8125C31.6748 12.6873 29.2031 17.1094 27.25 18.9062V17.5C27.25 17.5 19.7436 10.9644 19.5 10.7344C19.05 10.3094 17.1979 10.4375 17 10.5C16.3958 10.6875 15.35 11 14 11.5C12.9023 11.9066 12.0312 11.5781 11.6718 10.7344C11.3124 9.89062 10.8297 8.64466 12.4375 8Z" fill="#FFC83D"/>
<path d="M28.3106 17.7099C27.9645 18.1804 27.599 18.5852 27.25 18.9063C24.4896 16.5 18.8719 11.5813 18.4219 11.1563C17.9719 10.7313 17.4479 10.75 17.25 10.8125C16.6458 11 15.1 11.5 13.75 12C12.6523 12.4066 11.5469 11.5781 11.1875 10.7344C10.8589 9.96292 10.8321 8.85521 12.0589 8.17831L12.69 7.90133C12.7068 7.89496 12.7235 7.8886 12.7403 7.88226C10.7869 9.34968 12.5116 11.1435 14.125 10.9375C14.6919 10.8651 15.625 10.6719 16.5313 10.4375C16.8909 10.3445 17.2439 10.1794 17.5771 10.0236C18.2021 9.73124 18.7575 9.47151 19.1563 9.78126C20.6561 10.9462 25.1333 14.7492 28.3106 17.7099Z" fill="#D67D00"/>
<path d="M8.81945 16.8786C8.07602 15.9154 6.69251 15.7372 5.72929 16.4806L3.81252 18.1016C2.92972 18.836 2.70107 20.2103 3.34614 21.103C3.93006 21.9111 4.82674 22.2447 5.64863 22.0112C5.28362 22.846 5.31493 23.914 6.01567 24.5001C6.67051 25.0477 7.47952 25.423 8.29069 25.1697C8.21346 25.7052 8.3713 26.2914 8.92192 26.875C9.44191 27.4262 10.1973 27.7006 11.0083 27.5183C10.9011 28.0902 11.0818 28.7257 11.7507 29.3711C12.57 30.1616 13.8311 30.2288 15.0157 29.1407L15.7879 28.241C16.4082 27.461 17.2658 26.1055 15.9844 24.9532C15.5412 24.5547 15.0316 24.3341 14.5026 24.3327C14.7901 23.6321 14.7847 22.7748 13.9532 21.9532C13.4334 21.4396 12.7958 21.2165 12.0932 21.3852C12.473 20.5766 12.4644 19.7523 11.7032 19.0001C11.0118 18.3169 10.1604 17.9929 9.06004 18.6091C9.25414 18.0144 9.20803 17.3821 8.81945 16.8786Z" fill="#FFC83D"/>
<path d="M9.03352 17.2422L4.31006 21.9066C4.72783 22.0935 5.1834 22.1356 5.61931 22.0191L9.08879 18.593C9.0792 18.5983 9.0696 18.6036 9.05998 18.609C9.20968 18.1502 9.2165 17.6692 9.03352 17.2422Z" fill="#D67D00"/>
<path d="M12.2463 19.8263L6.95856 25.0846C7.38419 25.2563 7.83707 25.3112 8.29063 25.1696C8.29067 25.1693 8.29059 25.1698 8.29063 25.1696L12.0982 21.3838C12.0965 21.3842 12.0948 21.3846 12.0932 21.385C12.3378 20.8641 12.4213 20.3367 12.2463 19.8263Z" fill="#D67D00"/>
<path d="M14.5732 22.8968L9.65496 27.3953C10.0587 27.5722 10.5196 27.6262 11.0004 27.5199L14.5129 24.3071C14.683 23.8795 14.7429 23.3951 14.5732 22.8968Z" fill="#D67D00"/>
</svg>

<svg xmlns="http://www.w3.org/2000/svg" width="32" height="32" fill="none"><path fill="#FFC83D" d="M11.406 6.156c-5.275-.65-7.156 2-8.062 3.219-2.469 3.64-.985 7.64.812 9.563 0 0 10.094 9.828 10.375 10.093.281.266.946 1.172 2.547.914 1.398-.225 1.797-1.914 1.797-1.914s1.032.842 2.516 0c1.156-.656 1.109-1.968 1.109-1.968s1.238.62 2.563-.5c1.192-1.01.453-2.782.453-2.782s1.07.176 1.828-.656c1.025-1.125.672-2.547 0-3.188L19.625 10.5l-.594-3.125-7.625-1.219Z"/><path fill="#D67D00" d="m26.707 22.593-2.226-2.257a.5.5 0 1 0-.712.703l1.764 1.788a1.415 1.415 0 0 0-.017-.046s.582.096 1.191-.188ZM23.978 26.15l-2.31-2.563a.5.5 0 0 0-.743.67l1.66 1.841c.199.076.73.232 1.393.053ZM20.576 28.351l-1.806-1.913a.5.5 0 1 0-.727.687l.904.957c.199.13.795.45 1.629.269ZM18.403 29.053c-.759.203-2.167.266-3.137-.772l-.776.71.041.04c.03.028.062.062.1.1.328.34 1.01 1.046 2.447.814.622-.1 1.046-.49 1.325-.892Z"/><path fill="#F59F00" d="M6.375 6.813c-1.688 2.166-4.287 7.775.313 11.625L5.24 19.992l-1.084-1.055C2.36 17.015.875 13.015 3.344 9.374l.04-.055c.525-.706 1.366-1.839 2.95-2.567l.041.06Z"/><path fill="#D67D00" d="M17.25 23.688c1.203 1.39-.3 3.162-1 3.906L5.669 16.584c1.974-2.002 3.278-2.203 4.16-1.334.88.869.468 1.484.468 1.484s1.194-.678 2.453.563c1.26 1.241.39 2.187.39 2.187s1.3-.234 2.22.797c1.03 1.157.374 2.5.374 2.5s.79.068 1.516.907Z"/><path fill="#FFC83D" d="M12.438 8c3.234-1.297 8.14-1.953 10.39-1.984 1.531 0 3.481.37 5.547 2.796 3.3 3.875.828 8.297-1.125 10.094V17.5s-7.506-6.536-7.75-6.766c-.45-.425-2.302-.296-2.5-.234-.604.188-1.65.5-3 1-1.098.407-1.969.078-2.328-.766-.36-.843-.842-2.09.765-2.734Z"/><path fill="#D67D00" d="M28.31 17.71a8.41 8.41 0 0 1-1.06 1.196c-2.76-2.406-8.378-7.325-8.828-7.75-.45-.425-.974-.406-1.172-.344A78.71 78.71 0 0 0 13.75 12c-1.098.407-2.203-.422-2.563-1.266-.328-.771-.355-1.879.872-2.556l.631-.277.05-.019c-1.953 1.468-.228 3.261 1.385 3.056.567-.073 1.5-.266 2.406-.5.36-.094.713-.259 1.046-.414.625-.293 1.18-.552 1.58-.243 1.5 1.165 5.976 4.968 9.154 7.929Z"/><path fill="#FFC83D" d="M8.82 16.879a2.203 2.203 0 0 0-3.09-.398L3.812 18.1c-.883.735-1.112 2.11-.467 3.002.584.808 1.48 1.142 2.303.908-.365.835-.334 1.903.367 2.49.655.547 1.464.922 2.275.669-.078.535.08 1.121.63 1.705.52.551 1.276.826 2.087.643-.107.572.074 1.208.743 1.853.819.79 2.08.858 3.265-.23l.772-.9c.62-.78 1.478-2.136.196-3.288-.443-.398-.952-.619-1.481-.62.287-.7.282-1.558-.55-2.38-.52-.513-1.157-.736-1.86-.568.38-.808.371-1.633-.39-2.385-.691-.683-1.543-1.007-2.643-.39.194-.596.148-1.228-.24-1.731Z"/><path fill="#D67D00" d="M9.034 17.242 4.31 21.907c.418.186.873.229 1.31.112l3.469-3.426-.029.016c.15-.459.156-.94-.026-1.367ZM12.246 19.826 6.96 25.085c.425.171.878.226 1.332.085l3.807-3.786-.005.001c.245-.52.328-1.048.153-1.559ZM14.573 22.897l-4.918 4.498c.404.177.865.231 1.345.125l3.513-3.213c.17-.427.23-.912.06-1.41Z"/></svg>
